svgs/sharp-regular/link-simple.svg

<svg xmlns="http://www.w3.org/2000/svg" viewBox="0 0 576 512"><!--! Font Awesome Pro 6.6.0 by @fontawesome - https://fontawesome.com License - https://fontawesome.com/license (Commercial License) Copyright 2024 Fonticons, Inc. --><path d="M0 256C0 167.6 71.6 96 160 96l72 0 24 0 0 48-24 0-72 0C98.1 144 48 194.1 48 256s50.1 112 112 112l72 0 24 0 0 48-24 0-72 0C71.6 416 0 344.4 0 256zm576 0c0 88.4-71.6 160-160 160l-72 0-24 0 0-48 24 0 72 0c61.9 0 112-50.1 112-112s-50.1-112-112-112l-72 0-24 0 0-48 24 0 72 0c88.4 0 160 71.6 160 160zM184 232l208 0 24 0 0 48-24 0-208 0-24 0 0-48 24 0z"/></svg>

<svg xmlns="http://www.w3.org/2000/svg" viewBox="0 0 576 512"><!--! Font Awesome Pro 6.4.0 by @fontawesome - https://fontawesome.com License - https://fontawesome.com/license (Commercial License) Copyright 2023 Fonticons, Inc. --><path d="M0 256C0 167.6 71.6 96 160 96h72 24v48H232 160C98.1 144 48 194.1 48 256s50.1 112 112 112h72 24v48H232 160C71.6 416 0 344.4 0 256zm576 0c0 88.4-71.6 160-160 160H344 320V368h24 72c61.9 0 112-50.1 112-112s-50.1-112-112-112H344 320V96h24 72c88.4 0 160 71.6 160 160zM184 232H392h24v48H392 184 160V232h24z"/></svg>
